components/icon/svg/24/action_info-circle.svg

<?xml version="1.0" encoding="UTF-8"?>
<svg width="24px" height="24px" viewBox="0 0 24 24" version="1.1" xmlns="http://www.w3.org/2000/svg" xmlns:xlink="http://www.w3.org/1999/xlink">
    <!-- Generator: Sketch 64 (93537) - https://sketch.com -->
    <title>ic-db_action_info-circle_24</title>
    <desc>Created with Sketch.</desc>
    <g id="Symbols" stroke="none" stroke-width="1" fill="none" fill-rule="evenodd">
        <g id="24dp-Icon/Action/Info-Circle" fill="#282D37">
            <path d="M12,2 C17.53125,2 22,6.4688 22,12 C22,17.5312 17.53125,22 12,22 C6.46875,22 2,17.5312 2,12 C2,6.4688 6.46875,2 12,2 Z M12,4 C7.5625,4 4,7.5625 4,12 C4,16.4062 7.59375,20 12,20 C16.40625,20 20,16.4062 20,12 C20,7.5625 16.40625,4 12,4 Z M12,10 C12.59375,10 13,10.4375 13,11 L13,15 L14.03125,15 C14.5625,15 15,15.4688 15,16 C15,16.5312 14.5625,17 14.03125,17 L10,17 C9.46875,17 9,16.5312 9,16 C9,15.4375 9.46875,15 10,15 L11,15 L11,12 L10.0625,12 C9.5,12 9.0625,11.5312 9.0625,11 C9.0625,10.4688 9.5,10 10.0625,10 L12,10 Z M12,6 C12.6875,6 13.25,6.5312 13.25,7.2188 C13.25,7.9375 12.6875,8.4688 12,8.4688 C11.3125,8.4688 10.75,7.9375 10.75,7.2188 C10.75,6.5312 11.3125,6 12,6 Z" id="🎨-Color"></path>
        </g>
    </g>
</svg>

<svg width="24" height="24" xmlns="http://www.w3.org/2000/svg"><path d="M12 2a9.99 9.99 0 0110 10 9.99 9.99 0 01-10 10A9.99 9.99 0 012 12 9.99 9.99 0 0112 2zm0 2c-4.438 0-8 3.563-8 8 0 4.406 3.594 8 8 8 4.406 0 8-3.594 8-8 0-4.438-3.594-8-8-8zm0 6c.594 0 1 .438 1 1v4h1.031c.531 0 .969.469.969 1s-.438 1-.969 1H10c-.531 0-1-.469-1-1 0-.563.469-1 1-1h1v-3h-.938c-.562 0-1-.469-1-1s.438-1 1-1H12zm0-4c.688 0 1.25.531 1.25 1.219 0 .718-.563 1.25-1.25 1.25-.688 0-1.25-.531-1.25-1.25C10.75 6.53 11.313 6 12 6z" fill="#282D37" fill-rule="evenodd"/></svg>
